X: 3010
M: C|
L: 1/8
K: Bb
g2 |\
^f2 d4 c2 | =B4 d4 | e2 c4 de | f4 g2ab |\
^f2 d4 c2 | =B4 d4 | d2 g4 ^f2 | g6 :: ga |\
b2ag f3e | d4 def2 |
e2d2 c3B/c/ | d2 B4 f2 |\
b4 (g3f/g/) | a2=e2 (ef)g2 | f2(=ed) =e2(d^c) | d6 g2 |\
^f2 d4 c2 | =B4 d4 | e2 c4 de | f4 g2ab |
^f2 d4 c2 | =B4 d4 | d2 g4 ^f2 | g8 |\
g4 f3e | d3e f2g2 | c2de c3B | HB6 |]


